icon-svg/metv.svg

<svg xmlns="http://www.w3.org/2000/svg" fill="#44739e" viewBox="0 0 24 24"><path d="m18.903 12.456-.745-2.362h-1.335l1.414 3.637h1.298l1.4-3.637h-1.338zm-5.672-1.46h1.14v2.735h1.224v-2.734h1.113v-.903h-3.477Zm8.039-2.159H2.73a.729.729 0 0 0-.73.729v4.868a.729.729 0 0 0 .73.729h18.54a.729.729 0 0 0 .73-.729V9.566a.729.729 0 0 0-.73-.729m-14.58 5.5v-.258c.076-.007.168-.018.278-.034a1.03 1.03 0 0 0 .224-.049.36.36 0 0 0 .177-.136.417.417 0 0 0 .053-.218v-3.518L5.8 14.261h-.416c-.02-.073-.069-.217-.147-.434s-.143-.391-.192-.522l-1.19-3.234v2.862a2.66 2.66 0 0 0 .055.625.567.567 0 0 0 .177.313.87.87 0 0 0 .295.129 2.14 2.14 0 0 0 .3.073v.258H2.65v-.258c.056-.007.146-.022.271-.045a.76.76 0 0 0 .308-.121.483.483 0 0 0 .18-.313 3.33 3.33 0 0 0 .046-.629v-2.327a1 1 0 0 0-.053-.353.5.5 0 0 0-.16-.224.67.67 0 0 0-.272-.133 2.2 2.2 0 0 0-.282-.039V9.63h2.178l1.155 3.1.985-2.517a3.1 3.1 0 0 0 .1-.33 1.8 1.8 0 0 0 .05-.251h2.082v.258a2.1 2.1 0 0 0-.222.027 1.6 1.6 0 0 0-.223.053.264.264 0 0 0-.171.136.5.5 0 0 0-.041.205v3.332a.45.45 0 0 0 .041.2.342.342 0 0 0 .171.141.97.97 0 0 0 .218.056c.1.018.179.03.233.037v.258zm5.333-.437a1.7 1.7 0 0 1-.373.286 2.04 2.04 0 0 1-.449.19 1.93 1.93 0 0 1-.523.064 2.33 2.33 0 0 1-.848-.14 1.65 1.65 0 0 1-.588-.375 1.5 1.5 0 0 1-.347-.555 2.04 2.04 0 0 1-.114-.7 1.71 1.71 0 0 1 .124-.649 1.76 1.76 0 0 1 .353-.553 1.69 1.69 0 0 1 .569-.381 1.95 1.95 0 0 1 .769-.146 2.2 2.2 0 0 1 .763.113 1.34 1.34 0 0 1 .494.312 1.126 1.126 0 0 1 .275.445 1.65 1.65 0 0 1 .087.539v.216H9.97a1.72 1.72 0 0 0 .262 1.034 1.1 1.1 0 0 0 1.4.185 1.61 1.61 0 0 0 .426-.429l.25.183a1.96 1.96 0 0 1-.285.361m9.335.19a.486.486 0 0 1-.486.486h-7.733a.487.487 0 0 1-.487-.486v-4.2a.486.486 0 0 1 .487-.486h7.733a.485.485 0 0 1 .486.486ZM11.02 11.867a1.35 1.35 0 0 0-.07-.341.516.516 0 0 0-.155-.236.39.39 0 0 0-.249-.08.463.463 0 0 0-.41.259 1.76 1.76 0 0 0-.166.82l1.071-.013c0-.133-.007-.269-.021-.409"/></svg>

<?xml version="1.0" encoding="UTF-8"?>
<svg width="24px" fill="#44739e" height="24px" viewBox="0 0 24 24" version="1.1" xmlns="http://www.w3.org/2000/svg" xmlns:xlink="http://www.w3.org/1999/xlink">
            <path d="m 18.903,12.456 -0.745,-2.362 h -1.335 l 1.414,3.637 h 1.298 l 1.4,-3.637 h -1.338 z m -5.672,-1.46 h 1.14 v 2.735 h 1.224 v -2.734 h 1.113 V 10.094 H 13.231 Z M 21.27,8.837 H 2.73 A 0.729,0.729 0 0 0 2,9.566 v 4.868 a 0.729,0.729 0 0 0 0.73,0.729 H 21.27 A 0.729,0.729 0 0 0 22,14.434 V 9.566 A 0.729,0.729 0 0 0 21.27,8.837 Z m -14.58,5.5 V 14.079 C 6.766,14.072 6.858,14.061 6.968,14.045 A 1.033,1.033 0 0 0 7.192,13.996 0.36,0.36 0 0 0 7.369,13.86 0.417,0.417 0 0 0 7.422,13.642 V 10.124 L 5.8,14.261 H 5.384 C 5.364,14.188 5.315,14.044 5.237,13.827 5.159,13.61 5.094,13.436 5.045,13.305 l -1.19,-3.234 v 2.862 a 2.661,2.661 0 0 0 0.055,0.625 0.567,0.567 0 0 0 0.177,0.313 0.865,0.865 0 0 0 0.295,0.129 2.142,2.142 0 0 0 0.3,0.073 v 0.258 H 2.65 v -0.258 c 0.056,-0.007 0.146,-0.022 0.271,-0.045 a 0.759,0.759 0 0 0 0.308,-0.121 0.483,0.483 0 0 0 0.18,-0.313 3.332,3.332 0 0 0 0.046,-0.629 V 10.638 A 0.994,0.994 0 0 0 3.402,10.285 0.5,0.5 0 0 0 3.242,10.061 0.672,0.672 0 0 0 2.97,9.928 2.224,2.224 0 0 0 2.688,9.889 V 9.63 h 2.178 l 1.155,3.1 0.985,-2.517 a 3.117,3.117 0 0 0 0.1,-0.33 1.831,1.831 0 0 0 0.05,-0.251 H 9.238 V 9.89 A 2.1,2.1 0 0 0 9.016,9.917 1.571,1.571 0 0 0 8.793,9.97 0.264,0.264 0 0 0 8.622,10.106 0.5,0.5 0 0 0 8.581,10.311 v 3.332 a 0.447,0.447 0 0 0 0.041,0.2 0.342,0.342 0 0 0 0.171,0.141 0.974,0.974 0 0 0 0.218,0.056 c 0.1,0.018 0.179,0.03 0.233,0.037 v 0.258 z M 12.023,13.9 A 1.7,1.7 0 0 1 11.65,14.186 2.039,2.039 0 0 1 11.201,14.376 1.925,1.925 0 0 1 10.678,14.44 2.328,2.328 0 0 1 9.83,14.3 1.652,1.652 0 0 1 9.242,13.925 1.5,1.5 0 0 1 8.895,13.37 a 2.035,2.035 0 0 1 -0.114,-0.7 1.714,1.714 0 0 1 0.124,-0.649 1.757,1.757 0 0 1 0.353,-0.553 1.692,1.692 0 0 1 0.569,-0.381 1.952,1.952 0 0 1 0.769,-0.146 2.2,2.2 0 0 1 0.763,0.113 1.339,1.339 0 0 1 0.494,0.312 1.126,1.126 0 0 1 0.275,0.445 1.649,1.649 0 0 1 0.087,0.539 v 0.216 H 9.97 a 1.721,1.721 0 0 0 0.262,1.034 1.1,1.1 0 0 0 1.4,0.185 1.61,1.61 0 0 0 0.426,-0.429 l 0.25,0.183 A 1.961,1.961 0 0 1 12.023,13.9 Z m 9.335,0.19 a 0.486,0.486 0 0 1 -0.486,0.486 H 13.139 A 0.487,0.487 0 0 1 12.652,14.09 v -4.2 a 0.486,0.486 0 0 1 0.487,-0.486 h 7.733 A 0.485,0.485 0 0 1 21.358,9.89 Z M 11.02,11.867 a 1.346,1.346 0 0 0 -0.07,-0.341 0.516,0.516 0 0 0 -0.155,-0.236 0.391,0.391 0 0 0 -0.249,-0.08 0.463,0.463 0 0 0 -0.41,0.259 1.761,1.761 0 0 0 -0.166,0.82 l 1.071,-0.013 c 0,-0.133 -0.007,-0.269 -0.021,-0.409 z"/>

</svg>
